X:36
T:Ellesmere Quick,by Davies. JBs.036
S:Jas.Blackshaw MS, 1837, N.Shropshire
Z:Tony Weatherall 2006
M:6/8
L:1/8
Q:3/8=120
A:North Shropshire
R:Quickstep
K:F
c|f3 gab|a2câ€™f2f|gab d2g|fed cde|!
f3gab|a2câ€™f2a|g2f ede|(f3f2):|!
|:a|câ€™3abcâ€™|dâ€™3 gab|gfe dgf|ede c2a|!
câ€™3abâ€*â€câ€™|dâ€™3 gab|agf ede|(f3f2):|

